src/svg/veja_web_icons-14.svg

<svg enable-background="new 0 0 60 60" viewBox="0 0 60 60" xmlns="http://www.w3.org/2000/svg"><path d="m45.78 11.05c-1.95 0-3.53 1.58-3.53 3.53s1.58 3.53 3.53 3.53 3.53-1.58 3.53-3.53-1.58-3.53-3.53-3.53zm-15.68 4.52c-8.17 0-14.82 6.65-14.82 14.82s6.65 14.81 14.82 14.81 14.82-6.65 14.82-14.82-6.65-14.81-14.82-14.81zm0 24.31c-5.23 0-9.49-4.26-9.49-9.49s4.26-9.49 9.49-9.49 9.49 4.26 9.49 9.49-4.25 9.49-9.49 9.49zm29.9-21.81c0-9.98-8.09-18.07-18.07-18.07h-23.86c-9.98 0-18.07 8.09-18.07 18.07v23.86c0 9.98 8.09 18.07 18.07 18.07h23.85c9.99 0 18.08-8.09 18.08-18.07zm-5.66 23.86c0 6.86-5.56 12.41-12.41 12.41h-23.86c-6.86 0-12.41-5.56-12.41-12.41v-23.86c0-6.86 5.56-12.41 12.41-12.41h23.85c6.86 0 12.41 5.56 12.41 12.41v23.86z" fill="#878787"/></svg>

<?xml version="1.0" encoding="utf-8"?>
<!-- Generator: Adobe Illustrator 24.0.1, SVG Export Plug-In . SVG Version: 6.00 Build 0)  -->
<svg version="1.1" xmlns="http://www.w3.org/2000/svg" xmlns:xlink="http://www.w3.org/1999/xlink" x="0px" y="0px"
	 viewBox="0 0 60 60" style="enable-background:new 0 0 60 60;" xml:space="preserve">
<style type="text/css">
	.st0{clip-path:url(#SVGID_2_);}
	.st1{fill:#DADADA;}
	.st2{fill:#FFFFFF;}
	.st3{fill:#878787;}
	.st4{fill-rule:evenodd;clip-rule:evenodd;fill:#878787;}
</style>
<g id="Fundo">
</g>
<g id="Site">
	<g>
		<g>
			<g>
				<path class="st3" d="M45.78,11.05c-1.95,0-3.53,1.58-3.53,3.53s1.58,3.53,3.53,3.53s3.53-1.58,3.53-3.53
					S47.73,11.05,45.78,11.05z M30.1,15.57c-8.17,0-14.82,6.65-14.82,14.82S21.93,45.2,30.1,45.2c8.17,0,14.82-6.65,14.82-14.82
					S38.27,15.57,30.1,15.57z M30.1,39.88c-5.23,0-9.49-4.26-9.49-9.49s4.26-9.49,9.49-9.49c5.23,0,9.49,4.26,9.49,9.49
					S35.34,39.88,30.1,39.88z M60,18.07C60,8.09,51.91,0,41.93,0H18.07C8.09,0,0,8.09,0,18.07v23.86C0,51.91,8.09,60,18.07,60h23.85
					C51.91,60,60,51.91,60,41.93V18.07z M54.34,41.93c0,6.86-5.56,12.41-12.41,12.41H18.07c-6.86,0-12.41-5.56-12.41-12.41V18.07
					c0-6.86,5.56-12.41,12.41-12.41h23.85c6.86,0,12.41,5.56,12.41,12.41V41.93z"/>
			</g>
		</g>
	</g>
</g>
</svg>
